symbolic/24x24/apps/airtame-application.svg

<svg xmlns="http://www.w3.org/2000/svg" width="24" height="24" version="1">
 <rect style="opacity:0.2" width="21" height="21" x="2" y="1.5" rx="1.05" ry="1.05"/>
 <rect style="fill:#3c77e1" width="21" height="21" x="2" y="1" rx="1.05" ry="1.05"/>
 <path style="opacity:0.2" d="m 13.329726,15.316055 c -0.306145,-0.09732 -0.805639,-0.329873 -1.109989,-0.516795 -0.752462,-0.46214 -1.242593,-0.619277 -1.931608,-0.619277 -0.7416385,0 -1.1088675,0.107121 -1.7797455,0.519154 -0.296826,0.182302 -0.5852855,0.331457 -0.6410205,0.331457 -0.185145,0 -0.887136,-1.018048 -0.8277185,-1.200382 0.075121,-0.230529 1.032723,-0.831013 1.7237075,-1.080889 0.436442,-0.157828 0.7782675,-0.203867 1.5136,-0.203867 1.093125,0 1.639411,0.157919 2.65531,0.767593 0.345633,0.207425 0.845673,0.428996 1.111202,0.492379 0.890237,0.212503 1.896464,-0.01043 2.633982,-0.58356 0.124587,-0.09682 0.30525,-0.176034 0.401474,-0.176034 0.21306,0 0.9591,0.912218 0.919566,1.124395 -0.04464,0.239603 -1.165146,0.931925 -1.847907,1.14176 -0.810575,0.249117 -2.04435,0.250896 -2.820853,0.004 z m 0.433635,-3.920883 C 13.429046,11.319727 12.720523,11.02277 12.156216,10.721583 11.293592,10.261174 11.056188,10.17653 10.521997,10.138913 9.7556645,10.08495 9.2995105,10.200992 8.5775785,10.633558 8.2719055,10.81671 7.9638675,10.966562 7.89305,10.966562 7.742228,10.966562 7,10.062775 7,9.8791236 7,9.7208604 7.5815275,9.2621105 8.1398095,8.979963 9.565343,8.2595185 11.398931,8.3564075 12.841525,9.228407 c 0.778142,0.4703612 1.200887,0.6040056 1.910606,0.6040056 0.680669,0 1.359417,-0.2189944 1.862767,-0.6010121 0.180881,-0.13728 0.398257,-0.2496 0.483056,-0.2496 0.0848,0 0.334575,0.2377465 0.55506,0.5283255 0.469159,0.618312 0.457116,0.665803 -0.303968,1.198657 -0.945953,0.662284 -2.431973,0.946746 -3.585685,0.686389 z"/>
 <path style="fill:#ffffff" d="m 13.329726,14.816056 c -0.306145,-0.09732 -0.805639,-0.329873 -1.109989,-0.516795 -0.752462,-0.46214 -1.242593,-0.619277 -1.931608,-0.619277 -0.7416385,0 -1.1088675,0.107121 -1.7797455,0.519153 -0.296826,0.182302 -0.5852855,0.331458 -0.6410205,0.331458 -0.185145,0 -0.887136,-1.018049 -0.8277185,-1.200382 0.075121,-0.230529 1.032723,-0.831013 1.7237075,-1.080889 0.436442,-0.157828 0.7782675,-0.203867 1.5136,-0.203867 1.093125,0 1.639411,0.157919 2.65531,0.767593 0.345633,0.207425 0.845673,0.428996 1.111202,0.492379 0.890237,0.212503 1.896464,-0.01042 2.633982,-0.58356 0.124587,-0.09682 0.30525,-0.176034 0.401474,-0.176034 0.21306,0 0.9591,0.912218 0.919566,1.124395 -0.04464,0.239603 -1.165146,0.931925 -1.847907,1.14176 -0.810575,0.249118 -2.04435,0.250896 -2.820853,0.004 z m 0.433635,-3.920884 C 13.429045,10.819728 12.720523,10.522771 12.156216,10.221584 11.293592,9.7611744 11.056188,9.6765302 10.521997,9.6389122 9.7556645,9.58495 9.2995105,9.7009924 8.5775785,10.133559 8.2719055,10.31671 7.9638675,10.466563 7.89305,10.466563 7.742228,10.466563 7,9.562775 7,9.3791235 7,9.220861 7.5815275,8.7621115 8.1398095,8.479964 9.565343,7.7595195 11.398931,7.8564085 12.841525,8.728408 c 0.778142,0.4703615 1.200887,0.604005 1.910606,0.604005 0.680669,0 1.359417,-0.218994 1.862767,-0.6010115 0.180881,-0.13728 0.398257,-0.2496 0.483056,-0.2496 0.0848,0 0.334575,0.2377465 0.55506,0.528325 0.469159,0.6183117 0.457116,0.6658027 -0.303968,1.1986575 -0.945953,0.662284 -2.431973,0.946746 -3.585685,0.686388 z"/>
 <path style="fill:#ffffff;opacity:0.2" d="M 3.0507812 1 C 2.4690813 1 2 1.4690813 2 2.0507812 L 2 2.5507812 C 2 1.9690813 2.4690813 1.5 3.0507812 1.5 L 21.949219 1.5 C 22.530919 1.5 23 1.9690813 23 2.5507812 L 23 2.0507812 C 23 1.4690813 22.530919 1 21.949219 1 L 3.0507812 1 z"/>
</svg>

<svg xmlns="http://www.w3.org/2000/svg" width="24" height="24" version="1"><rect style="opacity:.2" width="21" height="21" x="2" y="1.5" rx="1.05" ry="1.05"/><rect style="fill:#3c77e1" width="21" height="21" x="2" y="1" rx="1.05" ry="1.05"/><path style="opacity:.2" d="M13.33 15.316a6.107 6.107 0 0 1-1.11-.517c-.753-.462-1.243-.619-1.932-.619-.742 0-1.109.107-1.78.52-.296.181-.585.33-.64.33-.186 0-.888-1.017-.828-1.2.075-.23 1.032-.83 1.723-1.08.437-.159.779-.205 1.514-.205 1.093 0 1.64.158 2.655.768.346.207.846.429 1.111.492.89.213 1.897-.01 2.634-.583.125-.097.306-.176.402-.176.213 0 .959.912.92 1.124-.045.24-1.166.932-1.848 1.142-.811.25-2.045.25-2.821.004zm.433-3.92c-.334-.076-1.042-.373-1.607-.674-.862-.46-1.1-.545-1.634-.583-.766-.054-1.222.062-1.944.495-.306.183-.614.333-.685.333-.15 0-.893-.904-.893-1.088 0-.158.582-.617 1.14-.899 1.425-.72 3.259-.624 4.702.248.778.47 1.2.604 1.91.604.68 0 1.36-.219 1.863-.6.18-.138.398-.25.483-.25.085 0 .335.238.555.528.47.618.457.666-.304 1.199-.946.662-2.432.947-3.586.686z"/><path style="fill:#fff" d="M13.33 14.816a6.107 6.107 0 0 1-1.11-.517c-.753-.462-1.243-.619-1.932-.619-.742 0-1.109.107-1.78.52-.296.181-.585.33-.64.33-.186 0-.888-1.017-.828-1.2.075-.23 1.032-.83 1.723-1.08.437-.159.779-.205 1.514-.205 1.093 0 1.64.158 2.655.768.346.207.846.429 1.111.492.89.213 1.897-.01 2.634-.583.125-.097.306-.176.402-.176.213 0 .959.912.92 1.124-.045.24-1.166.932-1.848 1.142-.811.25-2.045.25-2.821.004zm.433-3.92c-.334-.076-1.042-.373-1.607-.674-.862-.46-1.1-.545-1.634-.583-.766-.054-1.222.062-1.944.495-.306.183-.614.333-.685.333-.15 0-.893-.904-.893-1.088 0-.158.582-.617 1.14-.899 1.425-.72 3.259-.624 4.702.248.778.47 1.2.604 1.91.604.68 0 1.36-.219 1.863-.6.18-.138.398-.25.483-.25.085 0 .335.238.555.528.47.618.457.666-.304 1.199-.946.662-2.432.947-3.586.686z"/><path style="fill:#fff;opacity:.2" d="M3.05 1C2.47 1 2 1.47 2 2.05v.5c0-.58.47-1.05 1.05-1.05h18.9c.58 0 1.05.47 1.05 1.05v-.5C23 1.47 22.53 1 21.95 1H3.05z"/></svg>
